RestoDelMundo/Brasil/Otras Categorias/Fc Santa Cruz.svg

<svg xmlns="http://www.w3.org/2000/svg" viewBox="0 0 660 660"><path d="M334.828 626.29c-59.803-57.396-104.311-34.713-164.458-92.969l-16.669 14.092c-50.522-35.057-83.344-79.563-103.966-130.946-39.525-6.874-29.901-50.352 10.312-47.086l68.393-130.604-58.428-30.758L148.718 65.73c76.816 16.671 85.922-43.134 186.109 11.514C435.356 22.595 444.292 82.4 521.279 65.729l78.535 142.289-58.429 30.758 68.397 130.604c40.209-3.266 49.833 40.212 10.31 47.086-20.623 51.382-53.444 95.889-103.967 130.946l-16.498-14.092c-60.145 58.258-104.825 35.574-164.799 92.97"/><path fill="#fff" d="M55.406 383.986h19.075l80.253-153.627-57.914-30.418 62.038-112.56c27.15 5.327 57.225-5.671 83-12.373 17.015-2.92 29.901-1.546 46.227 2.923 16.153 4.81 31.793 13.403 46.57 21.136 24.23-12.374 49.148-25.95 76.815-25.95 26.465 2.578 50.523 13.576 77.158 15.125 6.532 0 15.638.343 21.996-.861l62.037 112.56-57.914 30.418 80.255 153.627h18.042c17.014 0 15.123 19.249 0 19.249h-8.593c-11.512 26.636-24.917 53.442-43.646 76.126-13.577 16.154-28.011 29.728-43.821 42.961l-18.39-15.81c-18.387 17.872-36.086 34.37-59.972 44.336-13.748 6.189-28.7 10.311-42.79 15.639-21.996 7.045-43.476 18.904-61.178 33.511-17.528-14.607-39.352-26.636-61.005-33.511-20.449-7.905-41.93-13.575-60.833-24.917-15.809-9.452-28.698-22.169-41.93-35.059l-18.215 15.81c-29.386-24.228-51.726-49.318-70.457-82.828-5.842-11.515-11.514-24.403-16.669-36.606h-10.14c-14.091.002-14.779-18.901.001-18.901"/><path d="M313.91 298.924h14.718v23.027H313.91ZM309.136 214.203h35.007v23.029h-35.007ZM312.715 261.634h35.803v23.028h-35.803ZM304.364 177.6h60.861v23.03h-60.861ZM285.707 453.756h-.298v23.03h96.523v-23.03ZM305.557 403.235h56.089v23.029h-56.089ZM315.102 331.059h35.803v23.029h-35.803Z"/><path d="M94.587 383.986h8.592c5.843 0 10.654 4.299 10.654 9.452 0 5.501-4.811 9.796-10.654 9.796l-18.731-.171c15.466 36.773 37.806 69.081 68.05 95.888l18.732-15.981 14.261 13.231c6.876 6.875 27.324 30.074 42.104 30.247 123.558 2.578 117.199-358.127 47.429-429.787-5.843-6.186-21.31-6.012-30.417-4.122-25.262 7.045-49.662 14.607-75.955 13.92l-47.775 86.265 57.57 30.245z"/><path fill="#ee3124" d="M574.38 383.986h-8.935c-5.843 0-10.482 4.299-10.482 9.452 0 5.501 4.639 9.796 10.482 9.796l19.074-.171c-15.294 36.773-37.632 69.081-67.879 95.888l-18.731-15.981-14.435 13.231c-6.874 6.875-27.321 30.074-41.931 30.247-123.728 2.578-117.198-357.954-47.427-429.787 5.841-6.186 21.309-6.012 30.417-4.122 25.261 7.045 49.663 14.607 75.955 13.92l47.774 86.265-57.57 30.245z"/><g fill="#fff"><path d="M286.195 217.555h54.647v16.326h-54.647ZM237.648 237.195c.241-1.116 2.322-3.105 3.473-3.314h15.153v-16.326h-15.276c-9.745 0-19.674 9.844-19.674 19.504v21.482h16.324zM399.614 264.985h13.92v16.325h-13.92ZM286.712 264.985h80.594v16.325h-80.594ZM215.395 281.31h41.568v-16.325h-41.568c-18.463 0-32.209 16.88-33.425 41.051a66 66 0 0 0-.085 3.33c0 22.721 13.67 39.515 31.61 41.328l-.03-16.243c-10.644-1.075-15.249-13.453-15.249-25.299q-.001-1.152.058-2.293c.639-12.696 6.727-25.549 17.121-25.549M244.953 334.41h10.997v16.326h-10.997ZM288.085 334.41h79.22v16.326h-79.22ZM407.348 406.586h-7.733v16.326h7.733c19.396 0 29.864-24.118 29.864-46.81 0-7.387-1.089-18.107-6.268-27.229-5.298-9.325-13.677-14.463-23.597-14.463h-7.733v16.326h7.733c2.524 0 6.244.642 9.398 6.2 2.671 4.699 4.138 11.504 4.138 19.166.001 15.954-6.45 30.484-13.535 30.484M286.712 406.586h80.594v16.326h-80.594ZM245.468 406.586h9.108v16.326h-9.108ZM203.193 406.586h9.967v16.326h-9.967Z"/><path d="M279.407 200.284c0-1.371.462-3.005 2.665-3.005h116.167c2.443 0 4.556 0 4.556 7.131h16.323c0-14.689-7.805-23.458-20.878-23.458H282.072c-10.825 0-18.991 8.312-18.991 19.332v91.939h16.326zM403.779 449.367c.052.281.075 1.775.075 2.091 0 1.653-.662 3.668-1.661 4.86-.66.789-1.069.789-1.205.789H282.072c-1.645 0-2.665-1.15-2.665-3.006V324.529h-16.326v129.573c0 10.841 8.341 19.333 18.991 19.333h118.916c5.268 0 10.143-2.359 13.727-6.641 3.477-4.157 5.459-9.885 5.459-15.366 0-1.271-.107-.62-.328-1.843z"/><path d="M457.269 261.291v-30.762c0-10.566-8.055-19.16-17.958-19.16h-47.085c-9.996 0-18.131 8.594-18.131 19.16v193.328c0 10.566 8.135 19.16 18.131 19.16h47.085c10.741 0 17.958-7.699 17.958-19.16V403.58h-16.326v20.277c0 1.685-.354 2.499-.493 2.687-.063.029-.357.148-1.139.148h-47.085c-.72 0-1.807-1.131-1.807-2.835V230.529c0-1.704 1.087-2.835 1.807-2.835h47.085c.558 0 1.632 1.197 1.632 2.835v30.762zM325.033 318.6v-16.325h-87.385v-13.987h-16.324v153.271h16.324V318.6Z"/></g></svg>

<svg enable-background="new 0 0 660 660" viewBox="0 0 660 660" xmlns="http://www.w3.org/2000/svg"><path d="M 334.828 626.29 c -59.803 -57.396 -104.311 -34.713 -164.458 -92.969 l -16.669 14.092 c -50.522 -35.057 -83.344 -79.563 -103.966 -130.946 c -39.525 -6.874 -29.901 -50.352 10.312 -47.086 l 68.393 -130.604 l -58.428 -30.758 l 78.706 -142.289 c 76.816 16.671 85.922 -43.134 186.109 11.514 C 435.356 22.595 444.292 82.4 521.279 65.729 l 78.535 142.289 l -58.429 30.758 l 68.397 130.604 c 40.209 -3.266 49.833 40.212 10.31 47.086 c -20.623 51.382 -53.444 95.889 -103.967 130.946 l -16.498 -14.092 C 439.482 591.578 394.802 568.894 334.828 626.29 z"/><path d="M 55.406 383.986 h 19.075 l 80.253 -153.627 L 96.82 199.941 l 62.038 -112.56 c 27.15 5.327 57.225 -5.671 83 -12.373 c 17.015 -2.92 29.901 -1.546 46.227 2.923 c 16.153 4.81 31.793 13.403 46.57 21.136 c 24.23 -12.374 49.148 -25.95 76.815 -25.95 c 26.465 2.578 50.523 13.576 77.158 15.125 c 6.532 0 15.638 .343 21.996 -.861 l 62.037 112.56 l -57.914 30.418 l 80.255 153.627 h 18.042 c 17.014 0 15.123 19.249 0 19.249 h -8.593 c -11.512 26.636 -24.917 53.442 -43.646 76.126 c -13.577 16.154 -28.011 29.728 -43.821 42.961 l -18.39 -15.81 c -18.387 17.872 -36.086 34.37 -59.972 44.336 c -13.748 6.189 -28.7 10.311 -42.79 15.639 c -21.996 7.045 -43.476 18.904 -61.178 33.511 c -17.528 -14.607 -39.352 -26.636 -61.005 -33.511 c -20.449 -7.905 -41.93 -13.575 -60.833 -24.917 c -15.809 -9.452 -28.698 -22.169 -41.93 -35.059 l -18.215 15.81 c -29.386 -24.228 -51.726 -49.318 -70.457 -82.828 c -5.842 -11.515 -11.514 -24.403 -16.669 -36.606 h -10.14 C 41.314 402.889 40.626 383.986 55.406 383.986 z" fill="#fff"/><path d="M 313.91 298.924 H 328.628 V 321.951 H 313.91 Z"/><path d="M 309.136 214.203 H 344.143 V 237.232 H 309.136 Z"/><path d="M 312.715 261.634 H 348.518 V 284.662 H 312.715 Z"/><path d="M 304.364 177.6 H 365.225 V 200.63 H 304.364 Z"/><path d="M 285.707 453.756 L 285.409 453.756 L 285.409 476.786 L 381.932 476.786 L 381.932 453.756 Z"/><path d="M 305.557 403.235 H 361.646 V 426.264 H 305.557 Z"/><path d="M 315.102 331.059 H 350.905 V 354.088 H 315.102 Z"/><path d="M 94.587 383.986 h 8.592 c 5.843 0 10.654 4.299 10.654 9.452 l 0 0 c 0 5.501 -4.811 9.796 -10.654 9.796 l -18.731 -.171 c 15.466 36.773 37.806 69.081 68.05 95.888 l 18.732 -15.981 l 14.261 13.231 c 6.876 6.875 27.324 30.074 42.104 30.247 c 123.558 2.578 117.199 -358.127 47.429 -429.787 c -5.843 -6.186 -21.31 -6.012 -30.417 -4.122 c -25.262 7.045 -49.662 14.607 -75.955 13.92 l -47.775 86.265 l 57.57 30.245 L 94.587 383.986 z"/><path d="M 574.38 383.986 h -8.935 c -5.843 0 -10.482 4.299 -10.482 9.452 l 0 0 c 0 5.501 4.639 9.796 10.482 9.796 l 19.074 -.171 c -15.294 36.773 -37.632 69.081 -67.879 95.888 l -18.731 -15.981 l -14.435 13.231 c -6.874 6.875 -27.321 30.074 -41.931 30.247 c -123.728 2.578 -117.198 -357.954 -47.427 -429.787 c 5.841 -6.186 21.309 -6.012 30.417 -4.122 c 25.261 7.045 49.663 14.607 75.955 13.92 l 47.774 86.265 l -57.57 30.245 L 574.38 383.986 z" fill="#ee3124"/><g><path d="M 286.195 217.555 H 340.842 V 233.881 H 286.195 Z" fill="#fff"/><path d="M 237.648 237.195 c .241 -1.116 2.322 -3.105 3.473 -3.314 c .236 0 15.153 0 15.153 0 v -16.326 h -15.276 c -9.745 0 -19.674 9.844 -19.674 19.504 v 21.482 h 16.324 C 237.648 258.541 237.648 237.46 237.648 237.195 z" fill="#fff"/><path d="M 399.614 264.985 H 413.534 V 281.31 H 399.614 Z" fill="#fff"/><path d="M 286.712 264.985 H 367.306 V 281.31 H 286.712 Z" fill="#fff"/><path d="M 215.395 281.31 h 41.568 v -16.325 h -41.568 c -18.463 0 -32.209 16.88 -33.425 41.051 c -.057 1.124 -.085 2.235 -.085 3.33 c 0 22.721 13.67 39.515 31.61 41.328 l -.03 -16.243 c -10.644 -1.075 -15.249 -13.453 -15.249 -25.299 c 0 -.767 .018 -1.534 .058 -2.293 C 198.913 294.163 205.001 281.31 215.395 281.31 z" fill="#fff"/><path d="M 244.953 334.41 H 255.95 V 350.736 H 244.953 Z" fill="#fff"/><path d="M 288.085 334.41 H 367.305 V 350.736 H 288.085 Z" fill="#fff"/><path d="M 407.348 406.586 h -7.733 v 16.326 h 7.733 c 19.396 0 29.864 -24.118 29.864 -46.81 c 0 -7.387 -1.089 -18.107 -6.268 -27.229 c -5.298 -9.325 -13.677 -14.463 -23.597 -14.463 h -7.733 v 16.326 h 7.733 c 2.524 0 6.244 .642 9.398 6.2 c 2.671 4.699 4.138 11.504 4.138 19.166 C 420.884 392.056 414.433 406.586 407.348 406.586 z" fill="#fff"/><path d="M 286.712 406.586 H 367.306 V 422.912 H 286.712 Z" fill="#fff"/><path d="M 245.468 406.586 H 254.576 V 422.912 H 245.468 Z" fill="#fff"/><path d="M 203.193 406.586 H 213.16 V 422.912 H 203.193 Z" fill="#fff"/><path d="M 279.407 200.284 c 0 -1.371 .462 -3.005 2.665 -3.005 h 116.167 c 2.443 0 4.556 0 4.556 7.131 h 16.323 c 0 -14.689 -7.805 -23.458 -20.878 -23.458 H 282.072 c -10.825 0 -18.991 8.312 -18.991 19.332 v 91.939 h 16.326 V 200.284 z" fill="#fff"/><path d="M 403.779 449.367 c .052 .281 .075 1.775 .075 2.091 c 0 1.653 -.662 3.668 -1.661 4.86 c -.66 .789 -1.069 .789 -1.205 .789 H 282.072 c -1.645 0 -2.665 -1.15 -2.665 -3.006 V 324.529 h -16.326 v 129.573 c 0 10.841 8.341 19.333 18.991 19.333 h 118.916 c 5.268 0 10.143 -2.359 13.727 -6.641 c 3.477 -4.157 5.459 -9.885 5.459 -15.366 c 0 -1.271 -.107 -.62 -.328 -1.843 L 403.779 449.367 z" fill="#fff"/><path d="M 457.269 261.291 v -30.762 c 0 -10.566 -8.055 -19.16 -17.958 -19.16 h -47.085 c -9.996 0 -18.131 8.594 -18.131 19.16 v 193.328 c 0 10.566 8.135 19.16 18.131 19.16 h 47.085 c 10.741 0 17.958 -7.699 17.958 -19.16 v -20.277 h -16.326 v 20.277 c 0 1.685 -.354 2.499 -.493 2.687 c -.063 .029 -.357 .148 -1.139 .148 h -47.085 c -.72 0 -1.807 -1.131 -1.807 -2.835 V 230.529 c 0 -1.704 1.087 -2.835 1.807 -2.835 h 47.085 c .558 0 1.632 1.197 1.632 2.835 v 30.762 H 457.269 z" fill="#fff"/><path d="M 325.033 318.6 L 325.033 302.275 L 237.648 302.275 L 237.648 288.288 L 221.324 288.288 L 221.324 441.559 L 237.648 441.559 L 237.648 318.6 Z" fill="#fff"/></g></svg>
